X: 305640
M: 6/8
L: 1/8
K: Bb
[|\
czf Fze | dzf Fzd | czf FGA | B3 b3 H|]
(AGF) cBA | edc BAG | FCD EDC | B,3 "^D.C."B3 |]
f3 fcd | B3 B2B | c3 cBG | F2F F/G/A/B/c/d/ |\
fff f=ec | fff f=ec | cde AGA | Bdf "^D.C."b3 |]


